X:152
T:Toms Boat
M:4/4
L:1/8
R:Reel
K:D
|:A3B AGFG|ABAG F2A2|BABc d2dA|BAGF E2FG|
A3B A2A2|BABc d2e2| fedf edBc|1d2dA BAFG :|2 d3c d2fg||
|:a2af gfec | d2dA BAFA| d2fd edfd|edcB A2fg |
a2af gfec | d2dA BAFA |BABc d2fd|1 edBc d2fg:|2edBc d2cB:|
